assets/Floppy disk/Flat/floppy_disk_flat.svg

<svg width="32" height="32" viewBox="0 0 32 32" fill="none" xmlns="http://www.w3.org/2000/svg">
<path d="M30 7.8758V26.1527C30 28.2812 28.2794 30 26.1486 30H5.85138C3.72061 30 2 28.2812 2 26.1527V5.84725C2 3.71877 3.72061 2 5.85138 2H24.1079C25.0382 2 25.9285 2.36974 26.5888 3.01927L28.9796 5.39757C29.6299 6.0571 30 6.94647 30 7.8758Z" fill="#635994"/>
<path d="M6 18H26V30H6V18Z" fill="#E6E6E6"/>
<path d="M6 17.5C6 16.6716 6.67157 16 7.5 16H24.5C25.3284 16 26 16.6716 26 17.5V19H6V17.5Z" fill="#F8312F"/>
<path d="M24.1158 2.00001C24.7892 2.00152 25.4413 2.19669 26 2.55139V11.2501C26 12.2201 25.21 13.0001 24.25 13.0001H7.75C6.78 13.0001 6 12.2201 6 11.2501V2.00009L24.1079 2C24.1105 2 24.1132 2 24.1158 2.00001Z" fill="#321B41"/>
<path d="M22.64 12H12.36C11.61 12 11 11.39 11 10.64V3.27C11 2.57 11.57 2 12.27 2H24V10.64C24 11.39 23.39 12 22.64 12Z" fill="#E6E6E6"/>
<path d="M22.0297 11H19.9703C19.4356 11 19 10.5589 19 10.0175L19 3.98246C19 3.4411 19.4356 3 19.9703 3H22.0297C22.5644 3 23 3.4411 23 3.98246V10.0276C23 10.5589 22.5644 11 22.0297 11Z" fill="#321B41"/>
</svg>

<svg xmlns="http://www.w3.org/2000/svg" width="32" height="32" fill="none"><path fill="#635994" d="M30 7.876v18.277A3.845 3.845 0 0 1 26.149 30H5.85A3.845 3.845 0 0 1 2 26.153V5.847A3.845 3.845 0 0 1 5.851 2h18.257c.93 0 1.82.37 2.48 1.02l2.392 2.378c.65.66 1.02 1.548 1.02 2.478Z"/><path fill="#E6E6E6" d="M6 18h20v12H6V18Z"/><path fill="#F8312F" d="M6 17.5A1.5 1.5 0 0 1 7.5 16h17a1.5 1.5 0 0 1 1.5 1.5V19H6v-1.5Z"/><path fill="#321B41" d="M24.116 2A3.53 3.53 0 0 1 26 2.551v8.7c0 .97-.79 1.75-1.75 1.75H7.75C6.78 13 6 12.22 6 11.25V2L24.108 2h.008Z"/><path fill="#E6E6E6" d="M22.64 12H12.36c-.75 0-1.36-.61-1.36-1.36V3.27c0-.7.57-1.27 1.27-1.27H24v8.64c0 .75-.61 1.36-1.36 1.36Z"/><path fill="#321B41" d="M22.03 11h-2.06a.978.978 0 0 1-.97-.982V3.982c0-.54.436-.982.97-.982h2.06c.534 0 .97.441.97.982v6.046a.976.976 0 0 1-.97.972Z"/></svg>
